packages/sources/icons/src/vitamix/checkbox-multiple-fill.svg

<svg width="16" height="16" viewBox="0 0 16 16" xmlns="http://www.w3.org/2000/svg"><path d="M4.66246 4.66252V1.99652C4.66246 1.81975 4.73268 1.65022 4.85767 1.52523C4.98266 1.40024 5.15219 1.33002 5.32896 1.33002H13.9935C14.1702 1.33002 14.3397 1.40024 14.4647 1.52523C14.5897 1.65022 14.66 1.81975 14.66 1.99652V10.661C14.66 10.8378 14.5897 11.0073 14.4647 11.1323C14.3397 11.2573 14.1702 11.3275 13.9935 11.3275H11.3275V13.9889C11.3275 14.3594 11.0282 14.66 10.6563 14.66H2.00112C1.91296 14.6601 1.82564 14.6428 1.74417 14.6091C1.66271 14.5754 1.58868 14.526 1.52634 14.4636C1.464 14.4013 1.41457 14.3273 1.38087 14.2458C1.34717 14.1643 1.32987 14.077 1.32996 13.9889L1.33196 5.33368C1.33196 4.96311 1.63121 4.66252 2.00312 4.66252H4.66246ZM5.99546 4.66252H10.6563C11.0269 4.66252 11.3275 4.96178 11.3275 5.33368V9.99452H13.327V2.66302H5.99546V4.66252ZM5.66421 11.994L9.43393 8.22363L8.4915 7.2812L5.66421 10.1092L4.24923 8.69484L3.3068 9.63727L5.66421 11.994Z"/></svg>

<svg width="16" height="16" xmlns="http://www.w3.org/2000/svg"><path d="M4.662 4.663V1.997a.667.667 0 0 1 .667-.667h8.665a.666.666 0 0 1 .666.667v8.664a.667.667 0 0 1-.667.667h-2.665v2.66c0 .371-.3.672-.672.672H2.001a.67.67 0 0 1-.671-.671l.002-8.655c0-.37.3-.671.671-.671h2.66Zm1.333 0h4.661a.67.67 0 0 1 .671.67v4.662h2V2.663H5.995v2Zm-.33 7.331 3.769-3.77-.942-.943-2.828 2.828L4.25 8.695l-.942.942 2.357 2.357Z"/></svg>
